public/assets/images/about/icons/17.svg

<svg width="60" height="60" viewBox="0 0 60 60" fill="none" xmlns="http://www.w3.org/2000/svg">
<path fill-rule="evenodd" clip-rule="evenodd" d="M15.7721 52.6013L16.5811 54.0308C16.5815 54.0315 16.582 54.0324 16.5824 54.0331C17.2291 55.1833 16.8191 56.651 15.6754 57.2968L12.9028 58.8682C12.9019 58.8688 12.9009 58.8694 12.9 58.8699C11.7498 59.5165 10.2821 59.1066 9.636 57.9624L1.48259 43.5557C0.830117 42.4045 1.24023 40.9355 2.38518 40.2888L5.16106 38.7173L5.16188 38.7168C6.30635 38.0705 7.77447 38.4768 8.42624 39.6213L8.42741 39.6234L9.08871 40.792L16.3856 36.5673C18.558 35.3111 20.7769 34.4885 23.1628 35.2632C25.4984 36.0205 29.3114 37.6526 33.2027 38.3558C33.2442 38.3633 33.2852 38.3735 33.3253 38.3866C35.2669 39.0153 36.4485 40.9778 35.9182 42.9494C35.8273 43.2882 35.7033 43.6004 35.5484 43.8828C36.0085 43.7617 36.4579 43.5755 36.8991 43.3185L46.7853 37.5606C50.3358 35.4922 52.7016 35.7084 54.0415 36.6073C55.1887 37.3769 55.7194 38.6914 55.6851 39.9814C55.6505 41.2842 55.0312 42.5295 54.0095 43.1587L36.0704 54.2037C34.1933 55.3621 32.1372 55.6339 30.0072 55.0657L30.0062 55.0653L17.3699 51.6787L15.7721 52.6013ZM10.0159 42.4302L14.8449 50.9631L16.7662 49.8537C16.9824 49.7288 17.2393 49.695 17.4805 49.7597L30.4927 53.247C32.1045 53.6768 33.6614 53.4785 35.0818 52.6018L35.0826 52.6013L53.0225 41.5559C53.4974 41.2634 53.746 40.6762 53.7956 40.0742C53.8721 39.1471 53.436 38.1241 52.2893 37.8839C51.2356 37.6632 49.7519 38.011 47.7328 39.1872L37.8468 44.9448C36.2701 45.8637 34.6175 46.1174 32.8165 45.8307C32.8154 45.8306 32.8144 45.8304 32.8133 45.8302L31.5875 45.6308C31.5872 45.6307 31.5868 45.6307 31.5864 45.6306C31.5736 45.6285 31.5609 45.6261 31.5484 45.6235C31.5479 45.6235 31.5475 45.6234 31.5471 45.6233C29.3167 45.1655 27.2482 44.4917 24.9531 43.8748C24.4514 43.74 24.1535 43.2233 24.2884 42.7217C24.4232 42.22 24.9399 41.9221 25.4415 42.0569C27.6858 42.6601 29.7086 43.3214 31.8874 43.7715C33.0161 43.8973 33.8408 43.4275 34.1004 42.4611L34.1005 42.4606C34.3638 41.4817 33.7512 40.5314 32.7996 40.1958C28.8381 39.4691 24.9601 37.8247 22.582 37.0537L22.5815 37.0535C20.7229 36.45 19.0204 37.218 17.3281 38.1967L10.0159 42.4302ZM6.79024 40.5522L6.78953 40.5511C6.64859 40.3058 6.33365 40.2169 6.08765 40.3558L3.31259 41.9268L3.31176 41.9273C3.06635 42.0659 2.98047 42.381 3.12023 42.6274L3.12047 42.628L11.2741 57.0353L11.2746 57.036C11.4135 57.282 11.7294 57.368 11.9767 57.2295L14.7473 55.6592L14.7485 55.6585C14.9946 55.5195 15.0806 55.2035 14.9419 54.9561L6.79024 40.5522ZM5.714 42.0881C6.34329 41.9945 6.92765 42.429 7.02129 43.0582C7.11118 43.6875 6.67671 44.2755 6.04741 44.3654C5.41812 44.4591 4.83376 44.0208 4.74012 43.3915C4.65023 42.7622 5.08471 42.178 5.714 42.0881ZM21.7064 11.0802C21.7064 10.744 21.8856 10.4333 22.1769 10.2652L27.1162 7.41342L31.1508 5.08424L36.0901 2.23248C36.3813 2.06436 36.74 2.06436 37.0313 2.23248L50.9445 10.2652C51.2356 10.4333 51.4151 10.744 51.4151 11.0802V27.1457C51.4151 27.4819 51.2356 27.7926 50.9445 27.9607L37.0313 35.9934C36.74 36.1615 36.3813 36.1615 36.0901 35.9934L22.1769 27.9607C21.8856 27.7926 21.7064 27.4819 21.7064 27.1457V11.0802ZM27.5868 9.3153L24.5299 11.0802L36.5607 18.0261L39.6176 16.2612L27.5868 9.3153ZM31.6213 6.98601L29.4692 8.22848L41.5 15.1745L43.6521 13.932L31.6213 6.98601ZM48.5915 11.0802L36.5607 4.13436L33.5036 5.8993L45.5345 12.8452L48.5915 11.0802ZM37.5019 33.5481L49.5327 26.6022V12.7104L46.4758 14.4753V20.2593C46.4758 20.5955 46.2964 20.9062 46.0052 21.0744L41.9705 23.4035C41.6793 23.5717 41.3206 23.5717 41.0294 23.4035C40.7381 23.2353 40.5588 22.9247 40.5588 22.5884V17.8914L37.5019 19.6564V33.5481ZM23.5887 12.7104V26.6022L35.6195 33.5481V19.6564L23.5887 12.7104ZM44.5934 15.5621L42.4412 16.8046V20.9584L44.5934 19.7159V15.5621ZM49.4331 5.40648C49.2986 5.90824 48.7821 6.20636 48.2804 6.07201C47.7786 5.93754 47.4804 5.42107 47.6148 4.9193L48.5251 1.52189C48.6595 1.02024 49.176 0.722008 49.6778 0.856479C50.1795 0.990832 50.4778 1.50742 50.3433 2.00918L49.4331 5.40648ZM54.2422 16.4484C53.7406 16.3134 53.4429 15.7966 53.5779 15.2949C53.7128 14.7934 54.2296 14.4957 54.7312 14.6306L58.1309 15.5451C58.6326 15.68 58.9304 16.1968 58.7954 16.6985C58.6605 17.2001 58.1436 17.4978 57.642 17.3628L54.2422 16.4484ZM54.1228 9.93519C53.6729 10.1948 53.0969 10.0405 52.8372 9.5906C52.5774 9.14083 52.7318 8.56471 53.1816 8.30495L56.2333 6.54318C56.6831 6.28342 57.2592 6.43777 57.5189 6.88765C57.7786 7.33754 57.6242 7.91354 57.1745 8.1733L54.1228 9.93519ZM25.5066 4.9193C25.6409 5.42107 25.3428 5.93754 24.8411 6.07201C24.3393 6.20636 23.8228 5.90824 23.6884 5.40648L22.778 2.00918C22.6435 1.50742 22.9418 0.990832 23.4435 0.856479C23.9453 0.722008 24.4618 1.02024 24.5962 1.52189L25.5066 4.9193ZM18.3901 14.6306C18.8918 14.4957 19.4085 14.7934 19.5434 15.2949C19.6784 15.7966 19.3807 16.3134 18.8791 16.4484L15.4793 17.3628C14.9778 17.4978 14.4609 17.2001 14.326 16.6985C14.1911 16.1968 14.4887 15.68 14.9904 15.5451L18.3901 14.6306ZM19.9396 8.30495C20.3895 8.56471 20.5439 9.14083 20.2841 9.5906C20.0245 10.0405 19.4484 10.1948 18.9985 9.93519L15.9469 8.1733C15.4971 7.91354 15.3427 7.33754 15.6025 6.88765C15.8621 6.43777 16.4382 6.28342 16.8881 6.54318L19.9396 8.30495Z" fill="#615EFC"/>
</svg>

<svg xmlns="http://www.w3.org/2000/svg" width="60" height="60" fill="none" viewBox="0 0 60 60"><path fill="#615efc" fill-rule="evenodd" d="m15.772 52.601.81 1.43v.002a2.405 2.405 0 0 1-.907 3.264l-2.772 1.571-.003.002a2.405 2.405 0 0 1-3.264-.908L1.483 43.556a2.4 2.4 0 0 1 .902-3.267l2.776-1.572a2.407 2.407 0 0 1 3.265.904l.001.002.662 1.169 7.297-4.225c2.172-1.256 4.39-2.078 6.777-1.304 2.335.758 6.148 2.39 10.04 3.093a1 1 0 0 1 .122.03c1.942.63 3.124 2.592 2.593 4.563q-.136.51-.37.934.69-.18 1.351-.565l9.886-5.757c3.55-2.069 5.917-1.853 7.257-.954 1.147.77 1.677 2.084 1.643 3.374-.035 1.303-.654 2.548-1.675 3.178L36.07 54.204c-1.877 1.158-3.933 1.43-6.063.862L17.37 51.678zm-5.756-10.17 4.829 8.532 1.921-1.11a.94.94 0 0 1 .715-.093l13.012 3.487c1.612.43 3.168.231 4.589-.645l17.94-11.046c.475-.293.724-.88.774-1.482.076-.927-.36-1.95-1.507-2.19-1.053-.22-2.537.127-4.556 1.303l-9.886 5.758c-1.577.919-3.23 1.172-5.03.886h-.004l-1.226-.2-.039-.008c-2.231-.457-4.3-1.131-6.595-1.748a.941.941 0 0 1 .489-1.818c2.244.603 4.267 1.264 6.445 1.715 1.13.125 1.954-.344 2.213-1.31v-.001c.264-.98-.349-1.93-1.3-2.265-3.962-.727-7.84-2.371-10.218-3.142-1.86-.604-3.562.164-5.254 1.143zm-3.226-1.88a.52.52 0 0 0-.702-.196l-2.775 1.57-.001.001a.514.514 0 0 0-.192.7v.001l8.154 14.407v.001a.517.517 0 0 0 .703.194l2.77-1.57.002-.002a.52.52 0 0 0 .193-.702zm-1.076 1.536a1.15 1.15 0 1 1 .333 2.277 1.15 1.15 0 1 1-.333-2.277M21.706 11.08a.94.94 0 0 1 .47-.815l4.94-2.852 4.035-2.329 4.94-2.852a.94.94 0 0 1 .94 0l13.914 8.033c.29.168.47.479.47.815v16.066c0 .336-.18.647-.47.815L37.03 35.993a.94.94 0 0 1-.94 0l-13.914-8.032a.94.94 0 0 1-.47-.815zm5.88-1.765L24.53 11.08l12.03 6.946 3.058-1.765zm4.035-2.329L29.47 8.228l12.03 6.947 2.152-1.243zm16.97 4.094-12.03-6.946L33.504 5.9l12.03 6.946zm-11.09 22.468 12.032-6.946V12.71l-3.057 1.765v5.784c0 .337-.18.647-.47.815l-4.035 2.33a.94.94 0 0 1-1.412-.816v-4.697l-3.057 1.765zM23.59 12.71v13.892l12.03 6.946V19.656zm21.004 2.852-2.152 1.243v4.153l2.152-1.242zm4.84-10.156a.942.942 0 0 1-1.818-.487l.91-3.397a.942.942 0 0 1 1.818.487zm4.81 11.042a.942.942 0 0 1 .488-1.817l3.4.914a.942.942 0 0 1-.489 1.818zm-.12-6.513a.942.942 0 0 1-.941-1.63l3.051-1.762a.941.941 0 0 1 .942 1.63zM25.507 4.92a.942.942 0 0 1-1.819.487l-.91-3.397a.942.942 0 0 1 1.818-.487zm-7.117 9.712a.942.942 0 0 1 .49 1.817l-3.4.915a.942.942 0 0 1-.49-1.818zm1.55-6.326a.942.942 0 0 1-.942 1.63l-3.051-1.762a.942.942 0 0 1 .941-1.63z" clip-rule="evenodd"/></svg>
